X: 1
T: Cavers of Kirkcudbright
C: Mike Vass (2007)
O: England
R: jig
%date: 2007
N: Mike Vass, Scottish composer, fiddler, and guitarist wrote this for his close friend Paul Cavers in 2007.
Z: 2020 John Chambers <jc:trillian.mit.edu>
S: handout at Roaring Jelly practice 2020-1-28
M: 6/8
L: 1/8
K: F
|:\
"F"Fcc cAc- | cdc AGF | "/E"Fcc cAc- | "Bb"cfe "C"dcA |\
"/D"Fcc cAc- | cdc AGF | "Bb"zBA GFD | zBA GFD :|
|:\
"Bb"dBB "C"ec"F"f- | fcc dcA | "Bb"dAB "C"ece | "Dm"fga "Am"gfe |\
"Bb"dBB "C"ec"F"f- | fcc dcA | "Bb"zBA GFD | zBA GFD :|

%%sep 1 1 500

